X: 101
T: Scarce o' Tatties
T: Cion a'Bhunta'ta
C: Norman MacLean
S: Barbara McOwen (Oct 1991), Allan MacDonald
B: BSFC Session Tune Book 2016 p.25
R: jig
N: jig-time variant of the old tune "The Banks of the Devon"
L: 1/8
M: 6/8
K: Ador
e |\
"Am"Aee efg | "Am"edB "G"dBG | "Am"Aee efg | "Em7"edB "Am"A2e |\
"Am"aaa "A7"ggg | "D"fff "Am"eAA | "Am"Aee efg | "Em7"edB "Am"A2 :|
|: e |\
"Am"aeg a2e | "Am"g2f eAA | "Am"aeg a2e | "G"gaf "Am"e3 |\
"Am"eee "A7"AAA | "D"dff "Am"fee | "Am"Aee efg | "Em7"edB "Am"A2 :|

%%sep 1 1 500

